X:1
T:Otto Langey 052
T:Otto Langey 052
T:Otto Langey
T:Digital Conversion: Christophe Budiman
C:Otto Langey
L:1/8
Q:1/4=60
M:2/4
K:F
V:1 treble nm="Flute" snm="Fl."
V:1
 (F/E/).F/.G/ (A/G/).F/.A/ | (G/^F/).G/.A/ (B/A/).G/.B/ | (A/^G/).A/.B/ (c/B/).A/.c/ | %3
 (B/A/).B/.c/ (d/c/).B/.d/ | (c/=B/).c/.d/ (e/d/).c/.e/ | (d/^c/).d/.e/ (f/e/).d/.f/ | %6
 (e/^d/).e/.f/ (g/f/).e/.g/ | f2 z2 | (f'/e'/f'/).c'/ .a/.c'/.f/.f'/ | %9
 (e'/^d'/e'/).c'/ .g/.c'/.e/.e'/ | (d'/^c'/d'/).a/ .f/.a/.d/.d'/ | (c'/=b/c'/).g/ .e/.g/.c/.c'/ | %12
 (_b/a/b/).f/ .d/.f/.B/.b/ | (a/^g/a/).f/ .c/.f/.A/.a/ | (g/^f/g/).e/ .c/.B/.G/.E/ | %15
 (F/A/).c/.f/ (a/c'/).f'/.d'/ | (c'/b/).g/.e/ (c/B/).G/.E/ | (F/A/).c/.f/ (a/c'/).f'/.d'/ | %18
 (c'/b/).e'/.d'/ (c'/b/).a/.g/ | .f/.a/.c'/.f'/ .e'/.f'/.c'/.a/ | f2 z2 |] %21

